X:343
%%etbk:tnset id:102,pos:5,rep:3x,ant:
%%etbk:wsite http://www.thesession.org/tunes/display/358
%%etbk:pldat 2016-06-22T15:12,2016-06-18T16:35,2016-05-04T16:21,2016-05-03T16:09,2016-03-10T18:01,2016-03-09T15:16,2016-03-07T18:07,2015-11-04T16:33,2015-10-29T18:28,2015-10-27T15:20,2015-10-24T12:58,2015-10-15T19:17,2015-06-23T19:01,2015-03-12T18:22,2015-03-09T18:03,2015-03-03T18:26,2014-11-05T18:32,2014-11-04T15:21,2014-11-02T13:23,2014-08-20T18:39,2014-06-25T15:20,2014-03-06T18:49,2014-03-05T18:22,2014-03-01T16:45,2014-02-25T18:13,2014-02-18T16:40,2013-10-30T16:15,2013-10-28T18:34,2013-10-24T18:43,2013-10-16T16:25,2013-10-15T18:25,2013-10-13T15:50,2013-10-09T16:52
T: Behind The Haystack
Z: Piano Box Version by Martin Fleischmann
H: Created 2013-02-19 /  Last Modified 2013-02-19
M: 6/8
L: 1/8
R: jig
K: Dmaj
|: "D"!3!d2e !5!f!3!d!2!B | !3!d2e !5!f!3!d!2!B | "A"!1!A!2!F!1!E !1!E!2!E!1!E | !4!A!2!FE !1!E!2!F!1!A |
"D"!3!d2e !5!f!3!d!2!B | !3!d2e !5!f!3!d!2!B | !1!A!2!F!1!D !1!D !3!(3D!2!D!1!D |1 !4!A!2!F!1!D D3:|2 !4!A!2!F!1!D !1!D!2!F!4!A:|
|: "G"!2!B2B B2!4!d | "D"!1!A!4!dd !4!dcB |  "A"!1!A!2!F!1!E !1!E!2!E!1!E | !4!A!2!FE !1!E!2!F!1!A |
"G"!2!B2B B2!4!d | "D"!1!A!4!dd !4!dcB  | !1!A!2!F!1!D !1!D !3!(3D!2!D!1!D |1 !4!A!2!F!1!D !1!D!2!F!4!A :|2 !4!A!2!F!1!D !1!D2!3!f||
|: "G"!4!g!3!g!4!g !3!faf | "D"!2!ede !3!f!1!d!2!B | "A"!1!A!3!FE !1!E!2!E!1!E | !4!A!2!F!1!E !1!E2!3!f |
"G"!4!g!3!g!4!g !3!faf | "D"!2!ede !3!f!1!d!2!B | !1!D !3!(3D!2!D!1!D |1 !4!A!2!F!1!D !1!D2!3!f:|2 !4!A!2!F!1!D D3||


